X: 24
T:Indian Reel
% Nottingham Music Database
S:via PR
M:4/4
L:1/4
K:G
B/2c/2|"G"dg/2d/2 Bd/2B/2|GB/2G/2 DB|"D"A/2^G/2A/2B/2 "D7"c/2A/2F/2A/2|\
"G"G/2A/2B/2c/2 dB/2c/2|
"G"dg/2d/2 Bd/2B/2|"G"GB/2G/2 DB|"D7"A/2^G/2A/2B/2 c/2A/2F/2A/2|\
"G"G/2F/2G/2A/2 G::
K:C
G/2G/2|"C"cG/2c/2 ec/2e/2|g3c/2d/2|"C"e/2c/2e/2g/2 f/2e/2d/2c/2|\
"G"B/2G/2A/2B/2 "G7"c/2B/2A/2G/2|
"C"cG/2c/2 ec/2e/2|g3c/2d/2|"C"e/2c/2e/2g/2 f/2e/2d/2c/2|"G7"B/2G/2A/2B/2 "C"c\
:|<end>
<start>
